X: 25659
T: Martin Rochford's
R: reel
M: 4/4
K: Fmajor
E|F z1 CD FGA=B|cAdA cAGA|F z1 CD FAd=B|cAGc ADDE|
F z1 CD FGA=B|cAdA cAGA|F2CD F2dA|cAGc ADDe||
f3f edcd|Addc Adde|f2af edcA|cAGc ADD2|
f3f edcd|Addc d3e|f2 af egge|cAGc ADDE||

